icons/telescope-16.svg

<svg xmlns="http://www.w3.org/2000/svg" width="16" height="16" viewBox="0 0 16 16"><path d="M14.184 1.143v-.001l1.422 2.464a1.75 1.75 0 01-.757 2.451L3.104 11.713a1.75 1.75 0 01-2.275-.702l-.447-.775a1.75 1.75 0 01.53-2.32L11.682.573a1.748 1.748 0 012.502.57zm-4.709 9.32h-.001l2.644 3.863a.75.75 0 11-1.238.848l-1.881-2.75v2.826a.75.75 0 01-1.5 0v-2.826l-1.881 2.75a.75.75 0 11-1.238-.848l2.049-2.992a.746.746 0 01.293-.253l1.809-.87a.749.749 0 01.944.252zM9.436 3.92h-.001l-4.97 3.39.942 1.63 5.42-2.61zm3.091-2.108h.001l-1.85 1.26 1.505 2.605 2.016-.97a.247.247 0 00.13-.151.247.247 0 00-.022-.199l-1.422-2.464a.253.253 0 00-.161-.119.254.254 0 00-.197.038zM1.756 9.157a.25.25 0 00-.075.33l.447.775a.25.25 0 00.325.1l1.598-.769-.83-1.436-1.465 1z"/></svg>

<svg xmlns="http://www.w3.org/2000/svg" width="16" height="16" viewBox="0 0 16 16">
  <defs/>
  <path d="M14.184,1.143 L14.184,1.142 L15.606,3.606 C15.849,4.028 15.906,4.532 15.762,4.997 C15.618,5.462 15.288,5.846 14.849,6.057 L3.104,11.713 C2.279,12.11 1.287,11.804 0.829,11.011 L0.382,10.236 C-0.075,9.443 0.156,8.432 0.912,7.916 L11.682,0.573 C12.084,0.298 12.583,0.204 13.057,0.312 C13.532,0.42 13.94,0.721 14.184,1.143 Z M9.475,10.463 L9.474,10.463 L12.118,14.326 C12.352,14.668 12.265,15.135 11.923,15.369 C11.581,15.603 11.114,15.516 10.88,15.174 L8.999,12.424 L8.999,15.25 C8.999,15.664 8.663,16 8.249,16 C7.835,16 7.499,15.664 7.499,15.25 L7.499,12.424 L5.618,15.174 C5.384,15.516 4.917,15.603 4.575,15.369 C4.233,15.135 4.146,14.668 4.38,14.326 L6.429,11.334 C6.503,11.225 6.604,11.138 6.722,11.081 L8.531,10.211 C8.865,10.05 9.266,10.157 9.475,10.463 Z M9.436,3.92 L9.435,3.92 L4.465,7.31 L5.407,8.94 L10.827,6.33 Z M12.527,1.812 L12.528,1.812 L10.678,3.072 L12.183,5.677 L14.199,4.707 C14.262,4.677 14.309,4.622 14.329,4.556 C14.35,4.489 14.342,4.417 14.307,4.357 L12.885,1.893 C12.85,1.833 12.792,1.79 12.724,1.774 C12.656,1.759 12.584,1.773 12.527,1.812 Z M1.756,9.157 C1.649,9.231 1.616,9.374 1.681,9.487 L2.128,10.262 C2.193,10.375 2.335,10.419 2.453,10.362 L4.051,9.593 L3.221,8.157 L1.756,9.157 Z"/>
</svg>
